X:332
T:Polska efter Lissmyr Erik Persson
B:EÖ, nr 332
S:efter Lissmyr Erik Persson
R:Polska
O:Västra Fors, Malungs sn, Dalarna
Z:Nils L
L:1/8
M:3/4
%%tuplets 0 0 1
K:Dm
A>^c d>e f>e | d>e ^c2 A2 | Pf>e f>g a>f | P(f>e e)^c A2 |
A^c de Pfe | de ^c2 A2 | Pf>e f>g a>f | Tfe e4 :|
d>f a2 a2 | "^X"b>a a>g g2 | "^Ciss"c>e g2 g>e | fg a4 ||
"^X"b>(a g>)(f e>)d | T^c=B/c/ d4 ||

